temp/img/home-services/megaphone.svg

<svg width="128" height="128" viewBox="0 0 128 128" fill="none" xmlns="http://www.w3.org/2000/svg">
<mask id="mask0" mask-type="alpha" maskUnits="userSpaceOnUse" x="0" y="13" width="128" height="102">
<path d="M89.5999 13.8667C84.8937 13.8667 81.0667 17.6939 81.0667 22.3999V23.9424L31.2064 43.8849C30.3979 44.2114 29.8667 44.9942 29.8667 45.8667V75.7334C29.8667 76.6059 30.3979 77.389 31.2064 77.7132L81.0667 97.6557V99.2002C81.0667 103.906 84.8939 107.733 89.5999 107.733C94.3059 107.733 98.1332 103.906 98.1332 99.2002V22.3999C98.1332 17.6937 94.3062 13.8667 89.5999 13.8667ZM93.8667 99.1999C93.8667 101.553 91.9532 103.467 89.5999 103.467C87.2467 103.467 85.3332 101.553 85.3332 99.1999V96.2132C85.3332 95.3384 84.8019 94.5557 83.9914 94.2314L34.1332 74.289V47.311L83.9914 27.3684C84.8022 27.0419 85.3332 26.2592 85.3332 25.3867V22.3999C85.3332 20.0469 87.2467 18.1332 89.5999 18.1332C91.9532 18.1332 93.8667 20.0467 93.8667 22.3999V99.1999Z" fill="#97D644"/>
<path d="M32 43.7333H17.0667C7.6565 43.7333 0 51.3898 0 60.8C0 70.2103 7.6565 77.8668 17.0667 77.8668H32C33.1775 77.8668 34.1333 76.9133 34.1333 75.7335V45.8668C34.1333 44.689 33.1775 43.7333 32 43.7333ZM29.8668 73.6H17.0667C10.0075 73.6 4.26675 67.8593 4.26675 60.8C4.26675 53.7408 10.0075 48 17.0667 48H29.8668V73.6Z" fill="#97D644"/>
<path d="M109.474 52.3756L96.6742 48.1089C96.0214 47.8934 95.3109 48.0021 94.7519 48.4034C94.1952 48.8044 93.8667 49.4486 93.8667 50.1336V71.4669C93.8667 72.1516 94.1952 72.7959 94.7519 73.1991C95.1209 73.4636 95.5584 73.6001 95.9999 73.6001C96.2262 73.6001 96.4544 73.5639 96.6742 73.4891L109.474 69.2224C110.347 68.9344 110.933 68.1194 110.933 67.1999V54.3999C110.933 53.4806 110.347 52.6679 109.474 52.3756ZM106.667 65.6619L98.1334 68.5056V53.0924L106.667 55.9361V65.6619Z" fill="#97D644"/>
<path d="M42.4683 102.385L40.3266 100.241L34.0696 75.217C33.8328 74.2677 32.9793 73.6 32.0003 73.6H14.9333C14.2806 73.6 13.6661 73.8987 13.2608 74.4065C12.8556 74.9185 12.7061 75.5862 12.8556 76.222L21.3888 112.489C21.6213 113.468 22.4938 114.133 23.4646 114.133C23.5991 114.133 23.7333 114.121 23.8698 114.093L39.8911 111C39.9123 110.995 39.9338 110.991 39.9551 110.987C40.8938 110.776 41.7513 110.306 42.4341 109.634C43.4068 108.672 43.9466 107.392 43.9551 106.023C43.9638 104.655 43.4391 103.366 42.4683 102.385ZM39.4368 106.596C39.3281 106.705 39.1916 106.78 39.0421 106.818L25.0751 109.517L17.6276 77.8665H30.3338L36.3328 101.849C36.4266 102.225 36.6208 102.568 36.8938 102.841L39.4453 105.393C39.6608 105.608 39.6906 105.862 39.6906 105.997C39.6886 106.127 39.6546 106.381 39.4368 106.596Z" fill="#97D644"/>
<path d="M128 58.6667H115.2V62.9335H128V58.6667Z" fill="#97D644"/>
<path d="M124.764 33.3754L114.098 39.7766L116.294 43.4347L126.959 37.0335L124.764 33.3754Z" fill="#97D644"/>
<path d="M116.312 78.1695L114.117 81.8282L124.784 88.2284L126.979 84.5696L116.312 78.1695Z" fill="#97D644"/>
<path d="M85.3334 24.5332H81.0667V97.0665H85.3334V24.5332Z" fill="#97D644"/>
<path d="M25.6 52.2667H21.3333V60.8H25.6V52.2667Z" fill="#97D644"/>
<path d="M17.0668 52.2667H12.8V60.8H17.0668V52.2667Z" fill="#97D644"/>
</mask>
<g mask="url(#mask0)">
<path d="M89.5999 13.8667C84.8937 13.8667 81.0667 17.6939 81.0667 22.3999V23.9424L31.2064 43.8849C30.3979 44.2114 29.8667 44.9942 29.8667 45.8667V75.7334C29.8667 76.6059 30.3979 77.389 31.2064 77.7132L81.0667 97.6557V99.2002C81.0667 103.906 84.8939 107.733 89.5999 107.733C94.3059 107.733 98.1332 103.906 98.1332 99.2002V22.3999C98.1332 17.6937 94.3062 13.8667 89.5999 13.8667ZM93.8667 99.1999C93.8667 101.553 91.9532 103.467 89.5999 103.467C87.2467 103.467 85.3332 101.553 85.3332 99.1999V96.2132C85.3332 95.3384 84.8019 94.5557 83.9914 94.2314L34.1332 74.289V47.311L83.9914 27.3684C84.8022 27.0419 85.3332 26.2592 85.3332 25.3867V22.3999C85.3332 20.0469 87.2467 18.1332 89.5999 18.1332C91.9532 18.1332 93.8667 20.0467 93.8667 22.3999V99.1999Z" fill="#97D644"/>
<path d="M32 43.7333H17.0667C7.6565 43.7333 0 51.3898 0 60.8C0 70.2103 7.6565 77.8668 17.0667 77.8668H32C33.1775 77.8668 34.1333 76.9133 34.1333 75.7335V45.8668C34.1333 44.689 33.1775 43.7333 32 43.7333ZM29.8668 73.6H17.0667C10.0075 73.6 4.26675 67.8593 4.26675 60.8C4.26675 53.7408 10.0075 48 17.0667 48H29.8668V73.6Z" fill="#97D644"/>
<path d="M109.474 52.3756L96.6742 48.1089C96.0214 47.8934 95.3109 48.0021 94.7519 48.4034C94.1952 48.8044 93.8667 49.4486 93.8667 50.1336V71.4669C93.8667 72.1516 94.1952 72.7959 94.7519 73.1991C95.1209 73.4636 95.5584 73.6001 95.9999 73.6001C96.2262 73.6001 96.4544 73.5639 96.6742 73.4891L109.474 69.2224C110.347 68.9344 110.933 68.1194 110.933 67.1999V54.3999C110.933 53.4806 110.347 52.6679 109.474 52.3756ZM106.667 65.6619L98.1334 68.5056V53.0924L106.667 55.9361V65.6619Z" fill="#97D644"/>
<path d="M42.4683 102.385L40.3266 100.241L34.0696 75.217C33.8328 74.2677 32.9793 73.6 32.0003 73.6H14.9333C14.2806 73.6 13.6661 73.8987 13.2608 74.4065C12.8556 74.9185 12.7061 75.5862 12.8556 76.222L21.3888 112.489C21.6213 113.468 22.4938 114.133 23.4646 114.133C23.5991 114.133 23.7333 114.121 23.8698 114.093L39.8911 111C39.9123 110.995 39.9338 110.991 39.9551 110.987C40.8938 110.776 41.7513 110.306 42.4341 109.634C43.4068 108.672 43.9466 107.392 43.9551 106.023C43.9638 104.655 43.4391 103.366 42.4683 102.385ZM39.4368 106.596C39.3281 106.705 39.1916 106.78 39.0421 106.818L25.0751 109.517L17.6276 77.8665H30.3338L36.3328 101.849C36.4266 102.225 36.6208 102.568 36.8938 102.841L39.4453 105.393C39.6608 105.608 39.6906 105.862 39.6906 105.997C39.6886 106.127 39.6546 106.381 39.4368 106.596Z" fill="#97D644"/>
<path d="M128 58.6667H115.2V62.9335H128V58.6667Z" fill="#97D644"/>
<path d="M124.764 33.3754L114.098 39.7766L116.294 43.4347L126.959 37.0335L124.764 33.3754Z" fill="#97D644"/>
<path d="M116.312 78.1695L114.117 81.8282L124.784 88.2284L126.979 84.5696L116.312 78.1695Z" fill="#97D644"/>
<path d="M85.3334 24.5332H81.0667V97.0665H85.3334V24.5332Z" fill="#97D644"/>
<path d="M25.6 52.2667H21.3333V60.8H25.6V52.2667Z" fill="#97D644"/>
<path d="M17.0668 52.2667H12.8V60.8H17.0668V52.2667Z" fill="#97D644"/>
<rect x="-26.2151" y="-14" width="172.792" height="140.597" rx="25" fill="url(#paint0_linear)"/>
<path fill-rule="evenodd" clip-rule="evenodd" d="M-63.3984 75.2358C-63.3984 75.2358 -42.0384 -39.6096 7.51893 30.6039C47.73 87.5755 52.5074 94.3794 70.9962 83.0078C92.6775 69.6727 96.6765 30.6039 107.464 30.6039C118.251 30.6039 134.153 99.0056 142.911 87.5755C151.669 76.1454 158.468 41.8044 176.304 41.8044C194.141 41.8044 191.544 84.2166 191.544 84.2166L184.175 133.747L78.2244 126.671L-60.8351 143" fill="url(#paint1_linear)"/>
</g>
<defs>
<linearGradient id="paint0_linear" x1="-26.2151" y1="56.2984" x2="145.596" y2="56.4545" gradientUnits="userSpaceOnUse">
<stop stop-color="#459622"/>
<stop offset="1" stop-color="#B0E94F"/>
</linearGradient>
<linearGradient id="paint1_linear" x1="182.461" y1="46.9252" x2="-47.0964" y2="48.2089" gradientUnits="userSpaceOnUse">
<stop stop-color="#5CA82C"/>
<stop offset="0.0001" stop-color="#68B231"/>
<stop offset="1" stop-color="#A6E24B"/>
</linearGradient>
</defs>
</svg>

<svg width="128" height="128" viewBox="0 0 128 128" fill="none" xmlns="http://www.w3.org/2000/svg"><mask id="a" maskUnits="userSpaceOnUse" x="0" y="13" width="128" height="102"><path d="M89.6 13.867c-4.706 0-8.533 3.827-8.533 8.533v1.542l-49.86 19.943a2.138 2.138 0 0 0-1.34 1.982v29.866c0 .873.53 1.656 1.34 1.98l49.86 19.943V99.2c0 4.706 3.827 8.533 8.533 8.533 4.706 0 8.533-3.827 8.533-8.533V22.4c0-4.706-3.827-8.533-8.533-8.533zM93.867 99.2a4.271 4.271 0 0 1-4.267 4.267 4.271 4.271 0 0 1-4.267-4.267v-2.987c0-.875-.531-1.657-1.342-1.982L34.133 74.29V47.311l49.858-19.943a2.136 2.136 0 0 0 1.342-1.981V22.4a4.271 4.271 0 0 1 4.267-4.267 4.27 4.27 0 0 1 4.267 4.267v76.8z" fill="#97D644"/><path d="M32 43.733H17.067C7.657 43.733 0 51.39 0 60.8s7.657 17.067 17.067 17.067H32a2.133 2.133 0 0 0 2.133-2.133V45.867A2.134 2.134 0 0 0 32 43.733zM29.867 73.6h-12.8c-7.06 0-12.8-5.74-12.8-12.8 0-7.06 5.74-12.8 12.8-12.8h12.8v25.6zm79.607-21.224l-12.8-4.267a2.132 2.132 0 0 0-2.808 2.025v21.333c0 .685.33 1.329.886 1.732a2.142 2.142 0 0 0 1.922.29l12.8-4.267a2.126 2.126 0 0 0 1.459-2.022V54.4c0-.92-.586-1.732-1.459-2.024zm-2.807 13.286l-8.534 2.844V53.092l8.534 2.844v9.726z" fill="#97D644"/><path d="M42.468 102.385l-2.141-2.144-6.257-25.024A2.134 2.134 0 0 0 32 73.6H14.933a2.14 2.14 0 0 0-1.672.806 2.136 2.136 0 0 0-.405 1.816l8.533 36.267a2.136 2.136 0 0 0 2.48 1.604L39.892 111l.064-.013a5.141 5.141 0 0 0 2.48-1.353 5.086 5.086 0 0 0 1.52-3.611 5.086 5.086 0 0 0-1.487-3.638zm-3.031 4.211a.85.85 0 0 1-.395.222l-13.967 2.699-7.447-31.65h12.706l5.999 23.982c.094.376.288.719.56.992l2.552 2.552a.843.843 0 0 1 .246.604.856.856 0 0 1-.254.599zM128 58.667h-12.8v4.267H128v-4.267zm-3.236-25.292l-10.666 6.402 2.196 3.658 10.665-6.402-2.195-3.658zm-8.452 44.795l-2.195 3.658 10.667 6.4 2.195-3.658-10.667-6.4zM85.333 24.533h-4.266v72.534h4.266V24.532zM25.6 52.267h-4.267V60.8H25.6v-8.533zm-8.533 0H12.8V60.8h4.267v-8.533z" fill="#97D644"/></mask><g mask="url(#a)"><path d="M89.6 13.867c-4.706 0-8.533 3.827-8.533 8.533v1.542l-49.86 19.943a2.138 2.138 0 0 0-1.34 1.982v29.866c0 .873.53 1.656 1.34 1.98l49.86 19.943V99.2c0 4.706 3.827 8.533 8.533 8.533 4.706 0 8.533-3.827 8.533-8.533V22.4c0-4.706-3.827-8.533-8.533-8.533zM93.867 99.2a4.271 4.271 0 0 1-4.267 4.267 4.271 4.271 0 0 1-4.267-4.267v-2.987c0-.875-.531-1.657-1.342-1.982L34.133 74.29V47.311l49.858-19.943a2.136 2.136 0 0 0 1.342-1.981V22.4a4.271 4.271 0 0 1 4.267-4.267 4.27 4.27 0 0 1 4.267 4.267v76.8z" fill="#97D644"/><path d="M32 43.733H17.067C7.657 43.733 0 51.39 0 60.8s7.657 17.067 17.067 17.067H32a2.133 2.133 0 0 0 2.133-2.133V45.867A2.134 2.134 0 0 0 32 43.733zM29.867 73.6h-12.8c-7.06 0-12.8-5.74-12.8-12.8 0-7.06 5.74-12.8 12.8-12.8h12.8v25.6zm79.607-21.224l-12.8-4.267a2.132 2.132 0 0 0-2.808 2.025v21.333c0 .685.33 1.329.886 1.732a2.142 2.142 0 0 0 1.922.29l12.8-4.267a2.126 2.126 0 0 0 1.459-2.022V54.4c0-.92-.586-1.732-1.459-2.024zm-2.807 13.286l-8.534 2.844V53.092l8.534 2.844v9.726z" fill="#97D644"/><path d="M42.468 102.385l-2.141-2.144-6.257-25.024A2.134 2.134 0 0 0 32 73.6H14.933a2.14 2.14 0 0 0-1.672.806 2.136 2.136 0 0 0-.405 1.816l8.533 36.267a2.136 2.136 0 0 0 2.48 1.604L39.892 111l.064-.013a5.141 5.141 0 0 0 2.48-1.353 5.086 5.086 0 0 0 1.52-3.611 5.086 5.086 0 0 0-1.487-3.638zm-3.031 4.211a.85.85 0 0 1-.395.222l-13.967 2.699-7.447-31.65h12.706l5.999 23.982c.094.376.288.719.56.992l2.552 2.552a.843.843 0 0 1 .246.604.856.856 0 0 1-.254.599zM128 58.667h-12.8v4.267H128v-4.267zm-3.236-25.292l-10.666 6.402 2.196 3.658 10.665-6.402-2.195-3.658zm-8.452 44.795l-2.195 3.658 10.667 6.4 2.195-3.658-10.667-6.4zM85.333 24.533h-4.266v72.534h4.266V24.532zM25.6 52.267h-4.267V60.8H25.6v-8.533zm-8.533 0H12.8V60.8h4.267v-8.533z" fill="#97D644"/><rect x="-26.215" y="-14" width="172.792" height="140.597" rx="25" fill="url(#paint0_linear)"/><path fill-rule="evenodd" clip-rule="evenodd" d="M-63.398 75.236S-42.038-39.61 7.519 30.604C47.73 87.576 52.507 94.379 70.996 83.008c21.681-13.335 25.68-52.404 36.468-52.404 10.787 0 26.689 68.402 35.447 56.972 8.758-11.43 15.557-45.772 33.393-45.772 17.837 0 15.24 42.413 15.24 42.413l-7.369 49.53-105.95-7.076L-60.836 143" fill="url(#paint1_linear)"/></g><defs><linearGradient id="paint0_linear" x1="-26.215" y1="56.298" x2="145.596" y2="56.455" gradientUnits="userSpaceOnUse"><stop stop-color="#459622"/><stop offset="1" stop-color="#B0E94F"/></linearGradient><linearGradient id="paint1_linear" x1="182.461" y1="46.925" x2="-47.096" y2="48.209" gradientUnits="userSpaceOnUse"><stop stop-color="#5CA82C"/><stop offset="0" stop-color="#68B231"/><stop offset="1" stop-color="#A6E24B"/></linearGradient></defs></svg>
